src/components/ProtocolIcon/harmony.svg

<svg width="16" height="16" viewBox="0 0 16 16" fill="none" xmlns="http://www.w3.org/2000/svg">
<path d="M6.88475 7.24857H9.03695C9.03695 5.95507 9.03695 4.71481 9.03695 3.47454C9.03264 2.72975 9.26869 2.00354 9.70984 1.40439C10.151 0.805247 10.7736 0.365317 11.4846 0.150312C12.1954 -0.0671984 12.9573 -0.04821 13.6564 0.204439C14.3556 0.457088 14.9544 0.929833 15.3635 1.55204C15.7296 2.09329 15.9245 2.73268 15.9226 3.38671C15.9226 6.44745 15.9226 9.50819 15.9226 12.5689C15.9226 14.4222 14.4188 15.9686 12.6178 15.9845C10.6195 16.0023 9.05995 14.542 9.03784 12.6133C9.0228 11.3296 9.03784 10.0449 9.03784 8.75143H6.88564C6.88564 10.0449 6.88564 11.2852 6.88564 12.5255C6.88995 13.2703 6.6539 13.9965 6.21275 14.5956C5.77159 15.1948 5.14901 15.6347 4.43799 15.8497C3.7272 16.0672 2.96531 16.0482 2.26617 15.7956C1.56704 15.5429 0.968176 15.0702 0.559073 14.448C0.192978 13.9067 -0.00185835 13.2673 1.33599e-05 12.6133C0.00473116 9.55255 0.00473116 6.49181 1.33599e-05 3.43107C1.33599e-05 1.57422 1.49408 0.0314323 3.30129 0.0154633C5.29957 -0.00228015 6.8591 1.458 6.88122 3.38671C6.89979 4.67045 6.88475 5.95507 6.88475 7.24857ZM5.44111 7.46149C5.44111 6.04201 5.49772 4.66956 5.42342 3.30243C5.35973 2.14467 4.40172 1.37106 3.30748 1.43937C2.21325 1.50768 1.41977 2.39574 1.41624 3.55794C1.41624 5.13887 1.41624 6.71981 1.41624 8.30075V8.93774C2.66793 8.07984 4.02312 7.71965 5.44111 7.46149V7.46149ZM10.4691 8.54206C10.4691 9.9296 10.4178 11.2754 10.485 12.6142C10.5461 13.8287 11.4952 14.6325 12.6204 14.5615C13.7226 14.4932 14.5072 13.5989 14.5072 12.395C14.5072 10.7727 14.5072 9.1477 14.5072 7.52004V7.05605C13.2547 7.9308 11.8924 8.27591 10.4691 8.54206ZM10.4744 7.12968C11.2086 6.90612 11.8968 6.74998 12.5426 6.48915C13.7863 5.98523 14.6337 5.36954 14.5205 3.58544C14.4453 2.39663 13.7111 1.49615 12.6036 1.43671C11.4961 1.37727 10.5593 2.16508 10.4894 3.35743C10.4196 4.54979 10.4744 5.77409 10.4744 7.13057V7.12968ZM5.40307 8.88806C4.75201 9.08146 4.09654 9.23583 3.47113 9.46916C1.81607 10.0902 1.32335 10.8673 1.41624 12.6222C1.44124 13.1213 1.64731 13.594 1.99563 13.9514C2.34396 14.3087 2.81052 14.526 3.30748 14.5624C4.29645 14.6218 5.31019 13.9272 5.37919 12.9593C5.47384 11.6472 5.40307 10.3164 5.40307 8.88895V8.88806Z" fill="url(#paint0_linear_3433_183)"/>
<defs>
<linearGradient id="paint0_linear_3433_183" x1="1.00843" y1="14.808" x2="14.9285" y2="0.95546" gradientUnits="userSpaceOnUse">
<stop stop-color="#00AEE9"/>
<stop offset="1" stop-color="#69FABD"/>
</linearGradient>
</defs>
</svg>

<svg xmlns="http://www.w3.org/2000/svg" width="16" height="16" fill="none"><path fill="url(#a)" d="M6.885 7.249h2.152V3.475a3.46 3.46 0 0 1 .673-2.07A3.44 3.44 0 0 1 11.485.15a3.43 3.43 0 0 1 3.879 1.402c.366.541.56 1.18.559 1.835v9.182c0 1.853-1.504 3.4-3.305 3.415-1.998.018-3.558-1.442-3.58-3.37-.015-1.284 0-2.57 0-3.863H6.886v3.774a3.46 3.46 0 0 1-.673 2.07 3.44 3.44 0 0 1-1.775 1.255 3.434 3.434 0 0 1-3.879-1.402A3.26 3.26 0 0 1 0 12.613q.008-4.59 0-9.182C0 1.574 1.494.031 3.301.015 5.3-.002 6.86 1.458 6.881 3.387c.019 1.283.004 2.568.004 3.862M5.44 7.46c0-1.419.057-2.791-.018-4.159-.063-1.157-1.021-1.93-2.116-1.863-1.094.069-1.887.957-1.89 2.119v5.38C2.666 8.08 4.022 7.72 5.44 7.46m5.028 1.081c0 1.388-.051 2.733.016 4.072.061 1.215 1.01 2.018 2.135 1.947 1.103-.068 1.887-.962 1.887-2.166V7.056c-1.252.875-2.615 1.22-4.038 1.486m.005-1.412c.735-.224 1.423-.38 2.069-.64 1.243-.505 2.09-1.12 1.978-2.905-.076-1.188-.81-2.089-1.917-2.148-1.108-.06-2.045.728-2.115 1.92-.07 1.193-.015 2.417-.015 3.774zm-5.07 1.758c-.652.193-1.307.348-1.933.581-1.655.621-2.148 1.398-2.055 3.153.025.5.231.972.58 1.33a2.04 2.04 0 0 0 1.311.61c.99.06 2.003-.635 2.072-1.603.095-1.312.024-2.643.024-4.07"/><defs><linearGradient id="a" x1="1.008" x2="14.928" y1="14.808" y2=".955" gradientUnits="userSpaceOnUse"><stop stop-color="#00AEE9"/><stop offset="1" stop-color="#69FABD"/></linearGradient></defs></svg>
